X: 200
T:Scotch Hornpipe,A. HA.199
M:3/2
L:1/4
Q:200
S:Henry Atkinson's original MS,Hartburn,N'umberland,1694.
O:England
A:Hartburn,Northumberland
H:1/4
Z:vmp.Neil Brookes, Jan.2004
K:F
FA2FA/2B/2c|Ad2cf2|Ad2cAF|"v"B2A2G2|!
FA2FA/2B/2c|Ad2cf2|fa2"u"g/2"u"f/2b"u"a/2"u"g/2|g3ff2:|!
|:a"u"c'2"u"af2|eg2ec2|df2cAF|"v"B2A2G2|!
(A/2B/2) c/2B/2 (A/2B/2) c/2B/2 AF|\
(B/2c/2) d/2c/2 (B/2c/2)d/2c/2 BG|\
AfAf(G/2A/2)B|A2"="G3/2F/2F2:|]
